germany/municipalities/07232092.svg

<?xml version="1.0" encoding="UTF-8" standalone="no"?>
<!-- Created with Inkscape (http://www.inkscape.org/) -->

<svg
   xmlns:dc="http://purl.org/dc/elements/1.1/"
   xmlns:cc="http://creativecommons.org/ns#"
   xmlns:rdf="http://www.w3.org/1999/02/22-rdf-syntax-ns#"
   xmlns:svg="http://www.w3.org/2000/svg"
   xmlns="http://www.w3.org/2000/svg"
   xmlns:sodipodi="http://sodipodi.sourceforge.net/DTD/sodipodi-0.dtd"
   xmlns:inkscape="http://www.inkscape.org/namespaces/inkscape"
   width="190.93384mm"
   height="209.14957mm"
   viewBox="0 0 190.93384 209.14957"
   version="1.1"
   id="svg3505"
   inkscape:version="0.92.4 (5da689c313, 2019-01-14)"
   sodipodi:docname="DEU Niederweiler COA.svg">
  <defs
     id="defs3499">
    <inkscape:path-effect
       effect="spiro"
       id="path-effect4459"
       is_visible="true" />
    <inkscape:path-effect
       effect="spiro"
       id="path-effect4455"
       is_visible="true" />
    <inkscape:path-effect
       effect="spiro"
       id="path-effect4459-1"
       is_visible="true" />
    <inkscape:path-effect
       effect="spiro"
       id="path-effect4455-6"
       is_visible="true" />
  </defs>
  <sodipodi:namedview
     id="base"
     pagecolor="#ffffff"
     bordercolor="#666666"
     borderopacity="1.0"
     inkscape:pageopacity="0.0"
     inkscape:pageshadow="2"
     inkscape:zoom="0.69324392"
     inkscape:cx="360.81986"
     inkscape:cy="395.24327"
     inkscape:document-units="mm"
     inkscape:current-layer="layer1"
     showgrid="false"
     fit-margin-top="0"
     fit-margin-left="0"
     fit-margin-right="0"
     fit-margin-bottom="0"
     inkscape:snap-midpoints="true"
     inkscape:snap-smooth-nodes="true"
     inkscape:object-paths="true"
     inkscape:window-width="1366"
     inkscape:window-height="745"
     inkscape:window-x="-8"
     inkscape:window-y="-8"
     inkscape:window-maximized="1" />
  <metadata
     id="metadata3502">
    <rdf:RDF>
      <cc:Work
         rdf:about="">
        <dc:format>image/svg+xml</dc:format>
        <dc:type
           rdf:resource="http://purl.org/dc/dcmitype/StillImage" />
        <dc:title></dc:title>
      </cc:Work>
    </rdf:RDF>
  </metadata>
  <g
     inkscape:label="Ebene 1"
     inkscape:groupmode="layer"
     id="layer1"
     transform="translate(-7.1931336,-16.61121)">
    <path
       style="fill:#ff0000;fill-opacity:1;fill-rule:evenodd;stroke:none;stroke-width:2.9104166;stroke-linecap:round;stroke-linejoin:round;stroke-miterlimit:4;stroke-dasharray:none;stroke-opacity:1"
       inkscape:connector-curvature="0"
       d="m 196.67177,18.066418 -0.42983,117.580672 c -2.09267,49.45939 -43.43961,88.63079 -93.58188,88.65848 C 52.562881,224.24497 11.200481,185.05941 9.0781707,135.64709 L 8.6483407,18.066418 H 102.6578 Z"
       id="path10563-0-6-6-7"
       sodipodi:nodetypes="ccccccc" />
    <path
       style="fill:#ffffff;fill-opacity:1;stroke:#000000;stroke-width:11;stroke-linecap:round;stroke-linejoin:round;stroke-miterlimit:4;stroke-dasharray:none;stroke-opacity:1"
       d="M 6.453125 266.30469 L 7.125 449.89844 C 7.1672535 450.8822 7.219064 451.8641 7.2695312 452.8457 L 714.37305 452.8457 C 714.42287 451.86406 714.474 450.88225 714.51562 449.89844 L 715.1875 266.30469 L 6.453125 266.30469 z "
       transform="matrix(0.26458333,0,0,0.26458333,7.1931336,16.61121)"
       id="rect4340" />
    <path
       style="fill:none;fill-rule:evenodd;stroke:#000000;stroke-width:2.9104166;stroke-linecap:round;stroke-linejoin:round;stroke-miterlimit:4;stroke-dasharray:none;stroke-opacity:1"
       inkscape:connector-curvature="0"
       d="m 196.67177,18.066418 -0.42983,117.580672 c -2.09267,49.45939 -43.43961,88.63079 -93.58188,88.65848 C 52.56288,224.24497 11.200481,185.05941 9.0781714,135.64709 L 8.6483414,18.066418 H 102.6578 Z"
       id="path10563-0-6-6"
       sodipodi:nodetypes="ccccccc" />
    <g
       transform="matrix(-1,0,0,1,-3.78579,0)"
       id="g4464-4">
      <path
         sodipodi:nodetypes="caaaaaaac"
         inkscape:original-d="m -75.464942,30.503796 c 0,0 4.657423,5.985544 6.202029,9.409975 2.520614,5.588264 5.225589,11.634178 4.811919,17.750636 -0.185386,2.74109 -1.140853,5.782423 -3.207946,7.592139 -1.632859,1.429549 -4.110356,1.783417 -6.279616,1.719006 -2.229677,-0.0662 -4.796079,-0.535095 -6.338305,-2.146734 -1.590975,-1.662581 -1.957103,-4.328814 -1.92477,-6.629755 0.09994,-7.112098 5.320745,-13.306504 6.522826,-20.316991 0.415824,-2.425066 0.213863,-7.378276 0.213863,-7.378276 z"
         inkscape:path-effect="#path-effect4459-1"
         inkscape:connector-curvature="0"
         id="path4457-7"
         d="m -75.464942,30.503796 c 2.334019,2.949623 4.41172,6.101997 6.202029,9.409975 2.955815,5.461501 5.156763,11.550158 4.811919,17.750636 -0.07867,1.414527 -0.292514,2.833163 -0.792987,4.158532 -0.500473,1.325369 -1.301035,2.55825 -2.414959,3.433607 -0.870035,0.683701 -1.909285,1.133431 -2.984666,1.39413 -1.07538,0.260699 -2.188493,0.337512 -3.29495,0.324876 -1.144863,-0.01307 -2.296739,-0.122553 -3.393968,-0.449621 -1.097228,-0.327067 -2.141642,-0.88068 -2.944337,-1.697113 -0.831374,-0.845603 -1.376098,-1.946298 -1.66604,-3.09615 -0.289943,-1.149852 -0.334979,-2.350214 -0.25873,-3.533605 0.229586,-3.563218 1.532052,-6.962378 2.926159,-10.24958 1.394108,-3.287203 2.906493,-6.564142 3.596667,-10.067411 0.477769,-2.425118 0.550361,-4.929556 0.213863,-7.378276 z"
         style="fill:#ffd700;fill-opacity:1;stroke:#000000;stroke-width:1.32291663;stroke-linecap:round;stroke-linejoin:round;stroke-miterlimit:4;stroke-dasharray:none;stroke-opacity:1" />
      <path
         inkscape:transform-center-y="59.238252"
         inkscape:transform-center-x="30.645265"
         inkscape:connector-curvature="0"
         id="rect4373-1"
         d="m -64.794344,69.083609 -17.269461,0.408008 -79.424315,111.278103 11.24809,8.02827 79.424316,-111.278092 z"
         style="fill:#ffd700;fill-opacity:1;stroke:#000000;stroke-width:1.32291663;stroke-linecap:round;stroke-linejoin:round;stroke-miterlimit:4;stroke-dasharray:none;stroke-opacity:1" />
      <path
         sodipodi:nodetypes="caac"
         inkscape:original-d="m -75.230855,69.330182 c 0.43103,-0.785143 1.011734,-1.50441 1.292297,-2.35463 0.350733,-1.062866 0.368428,-2.21094 0.453673,-3.326929 0.113274,-1.482931 0.05067,-2.974338 0.07561,-4.461111"
         inkscape:path-effect="#path-effect4455-6"
         inkscape:connector-curvature="0"
         id="path4453-7"
         d="m -75.230855,69.330182 c 0.579631,-0.68996 1.021544,-1.495148 1.292297,-2.35463 0.337314,-1.070775 0.407094,-2.205247 0.453673,-3.326929 0.06171,-1.486119 0.08693,-2.973754 0.07561,-4.461111"
         style="fill:none;stroke:#000000;stroke-width:1.32291663;stroke-linecap:round;stroke-linejoin:miter;stroke-miterlimit:4;stroke-dasharray:none;stroke-opacity:1" />
    </g>
    <g
       id="g4464"
       transform="translate(209.10591)">
      <path
         sodipodi:nodetypes="caaaaaaac"
         inkscape:original-d="m -75.464942,30.503796 c 0,0 4.657423,5.985544 6.202029,9.409975 2.520614,5.588264 5.225589,11.634178 4.811919,17.750636 -0.185386,2.74109 -1.140853,5.782423 -3.207946,7.592139 -1.632859,1.429549 -4.110356,1.783417 -6.279616,1.719006 -2.229677,-0.0662 -4.796079,-0.535095 -6.338305,-2.146734 -1.590975,-1.662581 -1.957103,-4.328814 -1.92477,-6.629755 0.09994,-7.112098 5.320745,-13.306504 6.522826,-20.316991 0.415824,-2.425066 0.213863,-7.378276 0.213863,-7.378276 z"
         inkscape:path-effect="#path-effect4459"
         inkscape:connector-curvature="0"
         id="path4457"
         d="m -75.464942,30.503796 c 2.334019,2.949623 4.41172,6.101997 6.202029,9.409975 2.955815,5.461501 5.156763,11.550158 4.811919,17.750636 -0.07867,1.414527 -0.292514,2.833163 -0.792987,4.158532 -0.500473,1.325369 -1.301035,2.55825 -2.414959,3.433607 -0.870035,0.683701 -1.909285,1.133431 -2.984666,1.39413 -1.07538,0.260699 -2.188493,0.337512 -3.29495,0.324876 -1.144863,-0.01307 -2.296739,-0.122553 -3.393968,-0.449621 -1.097228,-0.327067 -2.141642,-0.88068 -2.944337,-1.697113 -0.831374,-0.845603 -1.376098,-1.946298 -1.66604,-3.09615 -0.289943,-1.149852 -0.334979,-2.350214 -0.25873,-3.533605 0.229586,-3.563218 1.532052,-6.962378 2.926159,-10.24958 1.394108,-3.287203 2.906493,-6.564142 3.596667,-10.067411 0.477769,-2.425118 0.550361,-4.929556 0.213863,-7.378276 z"
         style="fill:#ffd700;fill-opacity:1;stroke:#000000;stroke-width:1.32291663;stroke-linecap:round;stroke-linejoin:round;stroke-miterlimit:4;stroke-dasharray:none;stroke-opacity:1" />
      <path
         inkscape:transform-center-y="59.238252"
         inkscape:transform-center-x="30.645265"
         inkscape:connector-curvature="0"
         id="rect4373"
         d="m -64.794344,69.083609 -17.269461,0.408008 -79.424315,111.278103 11.24809,8.02827 79.424316,-111.278092 z"
         style="fill:#ffd700;fill-opacity:1;stroke:#000000;stroke-width:1.32291663;stroke-linecap:round;stroke-linejoin:round;stroke-miterlimit:4;stroke-dasharray:none;stroke-opacity:1" />
      <path
         sodipodi:nodetypes="caac"
         inkscape:original-d="m -75.230855,69.330182 c 0.43103,-0.785143 1.011734,-1.50441 1.292297,-2.35463 0.350733,-1.062866 0.368428,-2.21094 0.453673,-3.326929 0.113274,-1.482931 0.05067,-2.974338 0.07561,-4.461111"
         inkscape:path-effect="#path-effect4455"
         inkscape:connector-curvature="0"
         id="path4453"
         d="m -75.230855,69.330182 c 0.579631,-0.68996 1.021544,-1.495148 1.292297,-2.35463 0.337314,-1.070775 0.407094,-2.205247 0.453673,-3.326929 0.06171,-1.486119 0.08693,-2.973754 0.07561,-4.461111"
         style="fill:none;stroke:#000000;stroke-width:1.32291663;stroke-linecap:round;stroke-linejoin:miter;stroke-miterlimit:4;stroke-dasharray:none;stroke-opacity:1" />
    </g>
  </g>
</svg>

<svg xmlns="http://www.w3.org/2000/svg" width="721.64" height="790.487" viewBox="0 0 190.934 209.15"><path style="fill:red;fill-opacity:1;fill-rule:evenodd;stroke:none;stroke-width:2.9104166;stroke-linecap:round;stroke-linejoin:round;stroke-miterlimit:4;stroke-dasharray:none;stroke-opacity:1" d="m196.672 18.066-.43 117.581c-2.093 49.46-43.44 88.63-93.582 88.659-50.097-.061-91.46-39.247-93.582-88.659l-.43-117.58h94.01z" transform="translate(-7.193 -16.611)"/><path style="fill:#fff;fill-opacity:1;stroke:#000;stroke-width:11;stroke-linecap:round;stroke-linejoin:round;stroke-miterlimit:4;stroke-dasharray:none;stroke-opacity:1" d="m6.453 266.305.672 183.593c.042.984.094 1.966.145 2.948h707.103c.05-.982.101-1.964.143-2.948l.672-183.593H6.452z" transform="scale(.26458)"/><path style="fill:none;fill-rule:evenodd;stroke:#000;stroke-width:2.9104166;stroke-linecap:round;stroke-linejoin:round;stroke-miterlimit:4;stroke-dasharray:none;stroke-opacity:1" d="m196.672 18.066-.43 117.581c-2.093 49.46-43.44 88.63-93.582 88.659-50.097-.061-91.46-39.247-93.582-88.659l-.43-117.58h94.01z" transform="translate(-7.193 -16.611)"/><path d="M-75.465 30.504a65.139 65.139 0 0 1 6.202 9.41c2.956 5.461 5.157 11.55 4.812 17.75-.079 1.415-.293 2.834-.793 4.159-.5 1.325-1.301 2.558-2.415 3.434-.87.683-1.91 1.133-2.985 1.394-1.075.26-2.188.337-3.295.325-1.144-.014-2.296-.123-3.394-.45-1.097-.327-2.141-.88-2.944-1.697-.831-.846-1.376-1.946-1.666-3.096-.29-1.15-.335-2.35-.259-3.534.23-3.563 1.532-6.962 2.927-10.25 1.394-3.287 2.906-6.564 3.596-10.067.478-2.425.55-4.93.214-7.378zM-64.794 69.084l-17.27.408-79.424 111.278 11.248 8.028L-70.816 77.52z" style="fill:gold;fill-opacity:1;stroke:#000;stroke-width:1.32291663;stroke-linecap:round;stroke-linejoin:round;stroke-miterlimit:4;stroke-dasharray:none;stroke-opacity:1" transform="matrix(-1 0 0 1 -10.979 -16.611)"/><path d="M-75.23 69.33a6.891 6.891 0 0 0 1.291-2.354c.338-1.071.408-2.206.454-3.327.062-1.486.087-2.974.076-4.461" style="fill:none;stroke:#000;stroke-width:1.32291663;stroke-linecap:round;stroke-linejoin:miter;stroke-miterlimit:4;stroke-dasharray:none;stroke-opacity:1" transform="matrix(-1 0 0 1 -10.979 -16.611)"/><g><path d="M-75.465 30.504a65.139 65.139 0 0 1 6.202 9.41c2.956 5.461 5.157 11.55 4.812 17.75-.079 1.415-.293 2.834-.793 4.159-.5 1.325-1.301 2.558-2.415 3.434-.87.683-1.91 1.133-2.985 1.394-1.075.26-2.188.337-3.295.325-1.144-.014-2.296-.123-3.394-.45-1.097-.327-2.141-.88-2.944-1.697-.831-.846-1.376-1.946-1.666-3.096-.29-1.15-.335-2.35-.259-3.534.23-3.563 1.532-6.962 2.927-10.25 1.394-3.287 2.906-6.564 3.596-10.067.478-2.425.55-4.93.214-7.378zM-64.794 69.084l-17.27.408-79.424 111.278 11.248 8.028L-70.816 77.52z" style="fill:gold;fill-opacity:1;stroke:#000;stroke-width:1.32291663;stroke-linecap:round;stroke-linejoin:round;stroke-miterlimit:4;stroke-dasharray:none;stroke-opacity:1" transform="translate(201.913 -16.611)"/><path d="M-75.23 69.33a6.891 6.891 0 0 0 1.291-2.354c.338-1.071.408-2.206.454-3.327.062-1.486.087-2.974.076-4.461" style="fill:none;stroke:#000;stroke-width:1.32291663;stroke-linecap:round;stroke-linejoin:miter;stroke-miterlimit:4;stroke-dasharray:none;stroke-opacity:1" transform="translate(201.913 -16.611)"/></g></svg>
